X: 26376
T: Merry Blacksmith, The
R: reel
M: 4/4
K: Dmajor
|:d2dA BAFA|ABdA BAFA|GBde f2ed|Beed egfe|
d2dA BAFA|ABdA BAFA|GBde f2ec|1 dBAF D2A2:|2 dBAF D2f2||
|:a2ag f2fe|d2dA BAFA|GBde f2ed|Beed egfe|
abag fgfe|dcdA BAFA|GBde f2ec|1 dBAF D2f2:|2 dBAF D2A2||

